X:0785
T:Tack and Tack
C:by Dibdin.
M:2/4
L:1/8
Q:1/4=100
I: ||
Z:Jack Campin * www.campin.me.uk * 2009
K:G
d|gb```````af      |g>d   d`d/c/|BdcA|B3 d|g2 =f/e/d/c/|a2 g/=f/e/d/|c2B>c|{d}c2  z
g|g/f/g/a/ g/f/e/d/|a/g/ g2=f   |feag|g2fd|bg``fa      |g>ddd       |bgfa |   g>dHd
z/g/|gedc|BdAF|G2z|]
<end>
<start>
